X: 24345
T: Louis De Carlo's
R: reel
M: 4/4
K: Gmajor
DEGA B2AG|EBcd edBG|DEGA BGcd|edBG {c}BAGE|
DEGA B2AG|EBcd edBD|E2 cBcB AG|E2 DBAG GE:|
[M:5/4]E2cB cBAG D2|BA AGDE cBcA|(3Bcd edBG {c}BAGD|
E2cB cBAG D2|BA AGDE cBcB|1 AG (3EGE DB AGGD:|2 AG (3EGE DB AGGE||

